X: 23031
T: Miss Mackenzie's Reel
C: R.Mackintosh
R: reel
B: RSCDS 23-3
Z: 2009 John Chambers <jc:trillian.mit.edu>
M: C|
L: 1/8
%--------------------
K: F
B | "F"A{B}cAF "Bb"Bdfd     | "F"A{B}cAF  "C7"EGEC \
  | "F"A{B}cAF "Bb"BdfB     | "F"Ac"C7"GB  "F"AFF :|
g | "F"afef    "Bb"df"C7"cA | "F"afef     "Bb"df"C7"ec \
  | "F"afef    "Bb"df"F"cf  |"Gm"Bd"C7"cB  "F"AFF |]
g | "F"afef    "Bb"df"C7"cA | "F"afef     "Bb"df"C7"ec \
  | "F"af"C"ge "Bb"fd"C7"ec | "Dm"fd"C7"cB "F"AFF |]
%%center Book23/23031-Miss_Mackenzies_Reel-1.abc

%%sep 2 1 500
%%sep 1 1 500

